src/images/global/icons/utility/device-phone.svg

<?xml version="1.0" encoding="UTF-8"?>
<svg width="48px" height="48px" viewBox="0 0 48 48" version="1.1" xmlns="http://www.w3.org/2000/svg" xmlns:xlink="http://www.w3.org/1999/xlink">
    <!-- Generator: Sketch 46.2 (44496) - http://www.bohemiancoding.com/sketch -->
    <title>icon/Utility/device-phone</title>
    <desc>Created with Sketch.</desc>
    <defs>
        <path d="M11.3711257,7.24874941 C14.4015573,7.24874941 16.8669403,9.71424453 16.8669403,12.7447345 C16.8669403,13.1268182 16.5571383,13.4367062 16.174903,13.4367062 C15.792783,13.4367062 15.4828656,13.1268182 15.4828656,12.7447345 C15.4828656,10.477374 13.6383554,8.63269278 11.3711257,8.63269278 C10.9888904,8.63269278 10.6790883,8.32292012 10.6790883,7.94072109 C10.6790883,7.55863739 10.9888904,7.24874941 11.3711257,7.24874941 Z M19.8666916,14.0741275 C19.4845716,14.0741275 19.1746542,13.7643548 19.1746542,13.3821558 C19.1746542,11.104877 18.2860783,8.97441146 16.6728239,7.38345323 C15.0626836,5.79583952 12.9133309,4.92141797 10.6209572,4.92141797 C10.2387219,4.92141797 9.92891986,4.61152998 9.92891986,4.22944628 C9.92891986,3.84724725 10.2387219,3.53747459 10.6209572,3.53747459 C13.2794187,3.53747459 15.7738673,4.55340436 17.6445596,6.39820087 C19.5237871,8.25118572 20.5587289,10.7315582 20.5587289,13.3821558 C20.5587289,13.7643548 20.2489269,14.0741275 19.8666916,14.0741275 Z M9.91035019,0 C17.6793922,0 24,6.3209307 24,14.0903888 C24,14.4724725 23.6901979,14.7823605 23.3079626,14.7823605 C22.9257274,14.7823605 22.6159253,14.4724725 22.6159253,14.0903888 C22.6159253,7.08406014 16.9161903,1.38394337 9.91035019,1.38394337 C9.52811489,1.38394337 9.21831283,1.07417072 9.21831283,0.691971687 C9.21831283,0.309772658 9.52811489,0 9.91035019,0 Z M21.0755655,18.8788329 C21.4586082,19.1683077 21.6872112,19.6209725 21.6872112,20.1160783 C21.6872112,20.5963066 21.4719876,21.0367466 21.10936,21.3269134 L21.0899829,21.3447893 C19.7478918,22.5808814 17.9822739,24 16.2277285,24 C13.9603835,24 10.3720544,23.4272781 5.40887789,18.4750674 C1.30509639,14.3803249 -0.345758713,11.0766214 0.0595444963,7.76738218 C0.219751143,6.09673188 1.23750741,4.06002854 1.68548626,3.29078669 C1.93704183,2.71967939 2.5422285,2.31614456 3.24706854,2.31614456 C3.78639632,2.31614456 4.19700515,2.58935805 4.496888,2.78887656 L4.59942487,2.85715109 L7.79063978,5.91866449 C8.38440783,6.42034397 8.73677018,7.16179163 8.73677018,7.9169634 C8.73677018,8.65379792 8.46468416,9.35245866 7.9892545,9.83903009 L7.00333195,10.8956709 C7.35938517,11.550968 8.14565494,12.8375741 9.41704289,14.1060735 C10.8013483,15.487249 12.2014552,16.3742414 12.9665025,16.8053397 L14.4309689,15.4660285 C14.8346573,15.0758718 15.3534546,14.8614759 15.8956659,14.8614759 C16.4386845,14.8614759 16.9578279,15.0762178 17.361747,15.4672971 L21.0755655,18.8788329 Z" id="path-1"></path>
    </defs>
    <g id="Symbols" stroke="none" stroke-width="1" fill="none" fill-rule="evenodd">
        <g id="icon/Utility/device-phone">
            <g id="Icon" transform="translate(12.000000, 12.000000)">
                <mask id="mask-2" fill="white">
                    <use xlink:href="#path-1"></use>
                </mask>
                <use id="Mask" fill="#384048" xlink:href="#path-1"></use>
                <g id="Color/Grayscale/Night-Sky" mask="url(#mask-2)" fill="#111111">
                    <g transform="translate(-12.000000, -12.000000)" id="Swatch">
                        <rect x="0" y="0" width="48" height="48"></rect>
                    </g>
                </g>
            </g>
        </g>
    </g>
</svg>

<?xml version="1.0" encoding="utf-8"?>
<!-- Generator: Adobe Illustrator 21.0.2, SVG Export Plug-In . SVG Version: 6.00 Build 0)  -->
<svg version="1.1" id="icon_x2F_Utility_x2F_device-phone-Layer_1" xmlns="http://www.w3.org/2000/svg" xmlns:xlink="http://www.w3.org/1999/xlink" x="0px" y="0px"
	 viewBox="0 0 48 48" style="enable-background:new 0 0 48 48;" xml:space="preserve">
<title>icon/Utility/device-phone</title>
<desc>Created with Sketch.</desc>
<g id="icon_x2F_Utility_x2F_device-phone-Symbols">
	<g id="icon_x2F_Utility_x2F_device-phone">
		<g id="icon_x2F_Utility_x2F_device-phone-Icon" transform="translate(12.000000, 12.000000)">
			<g id="icon_x2F_Utility_x2F_device-phone-Mask">
				<path id="icon_x2F_Utility_x2F_device-phone-path-1_1_" style="fill:#384048;" d="M11.4,7.2c3,0,5.5,2.5,5.5,5.5c0,0.4-0.3,0.7-0.7,0.7c-0.4,0-0.7-0.3-0.7-0.7
					c0-2.3-1.8-4.1-4.1-4.1c-0.4,0-0.7-0.3-0.7-0.7C10.7,7.6,11,7.2,11.4,7.2z M19.9,14.1c-0.4,0-0.7-0.3-0.7-0.7
					c0-2.3-0.9-4.4-2.5-6c-1.6-1.6-3.8-2.5-6.1-2.5c-0.4,0-0.7-0.3-0.7-0.7c0-0.4,0.3-0.7,0.7-0.7c2.7,0,5.2,1,7,2.9
					c1.9,1.9,2.9,4.3,2.9,7C20.6,13.8,20.2,14.1,19.9,14.1z M9.9,0C17.7,0,24,6.3,24,14.1c0,0.4-0.3,0.7-0.7,0.7s-0.7-0.3-0.7-0.7
					c0-7-5.7-12.7-12.7-12.7c-0.4,0-0.7-0.3-0.7-0.7S9.5,0,9.9,0z M21.1,18.9c0.4,0.3,0.6,0.7,0.6,1.2c0,0.5-0.2,0.9-0.6,1.2l0,0
					C19.7,22.6,18,24,16.2,24c-2.3,0-5.9-0.6-10.8-5.5c-4.1-4.1-5.8-7.4-5.3-10.7c0.2-1.7,1.2-3.7,1.6-4.5c0.3-0.6,0.9-1,1.6-1
					c0.5,0,0.9,0.3,1.2,0.5l0.1,0.1l3.2,3.1c0.6,0.5,0.9,1.2,0.9,2c0,0.7-0.3,1.4-0.7,1.9l-1,1.1c0.4,0.7,1.1,1.9,2.4,3.2
					c1.4,1.4,2.8,2.3,3.5,2.7l1.5-1.3c0.4-0.4,0.9-0.6,1.5-0.6c0.5,0,1.1,0.2,1.5,0.6L21.1,18.9z"/>
			</g>
			<defs>
				<filter id="icon_x2F_Utility_x2F_device-phone-Adobe_OpacityMaskFilter" filterUnits="userSpaceOnUse" x="-12" y="-12" width="48" height="48">
					<feColorMatrix  type="matrix" values="1 0 0 0 0  0 1 0 0 0  0 0 1 0 0  0 0 0 1 0"/>
				</filter>
			</defs>
			<mask maskUnits="userSpaceOnUse" x="-12" y="-12" width="48" height="48" id="icon_x2F_Utility_x2F_device-phone-mask-2">
				<g style="filter:url(#icon_x2F_Utility_x2F_device-phone-Adobe_OpacityMaskFilter);">
					<path id="icon_x2F_Utility_x2F_device-phone-path-1" style="fill:#FFFFFF;" d="M11.4,7.2c3,0,5.5,2.5,5.5,5.5c0,0.4-0.3,0.7-0.7,0.7c-0.4,0-0.7-0.3-0.7-0.7
						c0-2.3-1.8-4.1-4.1-4.1c-0.4,0-0.7-0.3-0.7-0.7C10.7,7.6,11,7.2,11.4,7.2z M19.9,14.1c-0.4,0-0.7-0.3-0.7-0.7
						c0-2.3-0.9-4.4-2.5-6c-1.6-1.6-3.8-2.5-6.1-2.5c-0.4,0-0.7-0.3-0.7-0.7c0-0.4,0.3-0.7,0.7-0.7c2.7,0,5.2,1,7,2.9
						c1.9,1.9,2.9,4.3,2.9,7C20.6,13.8,20.2,14.1,19.9,14.1z M9.9,0C17.7,0,24,6.3,24,14.1c0,0.4-0.3,0.7-0.7,0.7s-0.7-0.3-0.7-0.7
						c0-7-5.7-12.7-12.7-12.7c-0.4,0-0.7-0.3-0.7-0.7S9.5,0,9.9,0z M21.1,18.9c0.4,0.3,0.6,0.7,0.6,1.2c0,0.5-0.2,0.9-0.6,1.2l0,0
						C19.7,22.6,18,24,16.2,24c-2.3,0-5.9-0.6-10.8-5.5c-4.1-4.1-5.8-7.4-5.3-10.7c0.2-1.7,1.2-3.7,1.6-4.5c0.3-0.6,0.9-1,1.6-1
						c0.5,0,0.9,0.3,1.2,0.5l0.1,0.1l3.2,3.1c0.6,0.5,0.9,1.2,0.9,2c0,0.7-0.3,1.4-0.7,1.9l-1,1.1c0.4,0.7,1.1,1.9,2.4,3.2
						c1.4,1.4,2.8,2.3,3.5,2.7l1.5-1.3c0.4-0.4,0.9-0.6,1.5-0.6c0.5,0,1.1,0.2,1.5,0.6L21.1,18.9z"/>
				</g>
			</mask>
			<g id="icon_x2F_Utility_x2F_device-phone-Color_x2F_Grayscale_x2F_Night-Sky" style="mask:url(#icon_x2F_Utility_x2F_device-phone-mask-2);">
				<g id="icon_x2F_Utility_x2F_device-phone-Swatch" transform="translate(-12.000000, -12.000000)">
					<rect style="fill:#111111;" width="48" height="48"/>
				</g>
			</g>
		</g>
	</g>
</g>
</svg>
